;Sliced by ideaMaker 4.3.1.6452, 2023-02-28 13:11:31 UTC+0400
;Dimension: 305.000 305.000 300.000 0.400 0.400
;Plate Shape: 0
;Origin Center: 0
;Extruder Offset #1: 0.000 0.000
;Filament Diameter #1: 1.750
;Filament Diameter #2: 1.750
;Filament Compensation #1: 90.00
;Filament Compensation #2: 90.00
;Filament Density #1: 1240.00
;Filament Density #2: 1240.00
;Filament Type #1: PLA
;Filament Type #2: PLA
;Filament Name #1: [Raise3D] PLA 1.75mm
;Filament Name #2: [Raise3D] PLA 1.75mm
;Firmware: Raise3D Pro2
;Bounding Box: 103.920 210.333 96.500 208.500 0.000 31.870
;Model Gap: 0.150
M221 T0 S90.00
M140 S60.00
M104 T0 S205.00
M109 T0 S205.00
T0
M190 S60.00
G21
G90
M82
M107
G28 X0 Y0
G28 Z0
G1 Z15.0 F300
G92 E0
G1 F140 E29
G1 X20 Y0 F140 E30
G92 E0
G1 F6000.0
M117 Printing...
M1001
;TOTAL_NUM: 2
;PRINTING_TIME: 0
;REMAINING_TIME: 9946
M106 S0
;LAYER:-2
;Z:0.500
;HEIGHT:0.500
;PRINTING: NON-OBJECT
;PRINTING_ID: -1
G0 F6000 X106.991 Y101.495
G0 F300 Z0.500
;TYPE:RAFT
;WIDTH:0.800
G1 F480 X107.473 Y101.019 E0.1127
G1 X108.051 Y100.522 E0.2394
G1 X108.504 Y100.179 E0.3339
G1 X109.105 Y99.774 E0.4544
G1 X109.560 Y99.498 E0.5429
G1 X110.298 Y99.106 E0.6819
G1 X110.766 Y98.883 E0.7681
G1 X111.881 Y98.423 E0.9687
G1 X113.095 Y98.013 E1.1818
G1 X114.435 Y97.648 E1.4128
G1 X115.709 Y97.368 E1.6297
G1 X116.889 Y97.154 E1.8291
G1 X118.234 Y96.960 E2.0551
G1 X119.039 Y96.902 E2.1893
G1 X123.892 Y96.900 E2.9964
G1 X124.566 Y96.946 E3.1087
G1 X125.057 Y97.037 E3.1918
G1 X125.575 Y97.198 E3.2820
G1 X125.893 Y97.331 E3.3393
G1 X126.494 Y97.667 E3.4538
G1 X126.898 Y97.966 E3.5374
G1 X127.278 Y98.320 E3.6238
G1 X127.530 Y98.606 E3.6872
G1 X127.826 Y99.016 E3.7713
G1 X128.150 Y99.613 E3.8842
G1 X128.339 Y100.105 E3.9719
G1 X128.468 Y100.603 E4.0574
G1 X128.526 Y100.976 E4.1202
G1 X128.555 Y101.467 E4.2020
G1 X128.508 Y102.160 E4.3175
G1 X128.410 Y102.648 E4.4003
G1 X128.301 Y103.006 E4.4625
G1 X128.023 Y103.645 E4.5784
G1 X127.759 Y104.085 E4.6637
G1 X127.449 Y104.491 E4.7487
G1 X127.200 Y104.760 E4.8096
G1 X126.802 Y105.111 E4.8979
G1 X126.390 Y105.401 E4.9817
G1 X125.931 Y105.651 E5.0686
G1 X125.286 Y105.899 E5.1835
G1 X124.802 Y106.020 E5.2665
G1 X123.276 Y106.235 E5.5228
G1 X122.285 Y106.404 E5.6899
G1 X121.140 Y106.642 E5.8844
G1 X120.327 Y106.849 E6.0239
G1 X119.501 Y107.098 E6.1674
G1 X118.800 Y107.354 E6.2915
G1 X118.223 Y107.606 E6.3962
G1 X117.797 Y107.838 E6.4769
G1 X117.400 Y108.136 E6.5594
G1 X117.051 Y108.489 E6.6420
G1 X116.758 Y108.888 E6.7243
G1 X116.524 Y109.326 E6.8069
G1 X116.357 Y109.794 E6.8895
G1 X116.261 Y110.281 E6.9721
G1 X116.236 Y110.770 E7.0535
G1 X122.832 Y176.852 E18.0976
G1 X122.915 Y177.327 E18.1778
G1 X123.070 Y177.799 E18.2604
G1 X123.294 Y178.243 E18.3431
G1 X123.578 Y178.649 E18.4255
G1 X123.919 Y179.010 E18.5081
G1 X124.308 Y179.317 E18.5905
G1 X124.739 Y179.564 E18.6731
G1 X125.201 Y179.747 E18.7558
G1 X125.686 Y179.859 E18.8385
G1 X126.198 Y179.900 E18.9240
G1 X141.408 Y179.900 E21.4534
G1 X142.082 Y179.946 E21.5657
G1 X142.573 Y180.037 E21.6488
G1 X143.087 Y180.197 E21.7383
G1 X143.554 Y180.402 E21.8231
G1 X144.002 Y180.662 E21.9093
G1 X144.411 Y180.965 E21.9939
G1 X144.793 Y181.321 E22.0807
G1 X145.138 Y181.726 E22.1692
G1 X145.342 Y182.019 E22.2286
G1 X145.665 Y182.615 E22.3413
G1 X145.849 Y183.093 E22.4265
G1 X145.982 Y183.605 E22.5145
G1 X146.039 Y183.970 E22.5759
G1 X146.072 Y184.460 E22.6576
G1 X146.074 Y203.446 E25.8150
G1 X146.049 Y203.931 E25.8957
G1 X145.936 Y204.602 E26.0089
G1 X145.777 Y205.113 E26.0979
G1 X145.645 Y205.427 E26.1545
G1 X145.310 Y206.031 E26.2694
G1 X145.009 Y206.437 E26.3534
G1 X144.653 Y206.819 E26.4403
G1 X144.248 Y207.164 E26.5288
G1 X143.955 Y207.368 E26.5881
G1 X143.359 Y207.691 E26.7009
G1 X142.881 Y207.875 E26.7860
G1 X142.369 Y208.008 E26.8740
G1 X142.003 Y208.065 E26.9356
G1 X141.425 Y208.100 E27.0319
G1 X137.540 Y208.100 E27.6780
G1 X136.866 Y208.054 E27.7903
G1 X136.375 Y207.963 E27.8734
G1 X135.861 Y207.803 E27.9629
G1 X135.547 Y207.671 E28.0195
G1 X134.943 Y207.336 E28.1344
G1 X134.208 Y206.814 E28.2843
G1 X133.762 Y206.592 E28.3672
G1 X133.290 Y206.438 E28.4497
G1 X132.800 Y206.355 E28.5324
G1 X132.304 Y206.343 E28.6149
G1 X131.812 Y206.405 E28.6974
G1 X131.333 Y206.536 E28.7800
G1 X130.873 Y206.740 E28.8636
G1 X129.830 Y207.446 E29.0731
G1 X129.356 Y207.692 E29.1619
G1 X129.016 Y207.829 E29.2229
G1 X128.523 Y207.973 E29.3083
G1 X127.998 Y208.066 E29.3969
G1 X127.425 Y208.100 E29.4924
G1 X123.528 Y208.100 E30.1405
G1 X123.043 Y208.075 E30.2212
G1 X122.372 Y207.962 E30.3344
G1 X121.861 Y207.803 E30.4234
G1 X121.547 Y207.671 E30.4800
G1 X120.943 Y207.336 E30.5949
G1 X120.537 Y207.035 E30.6789
G1 X120.155 Y206.679 E30.7658
G1 X119.815 Y206.280 E30.8530
G1 X119.525 Y205.850 E30.9392
G1 X119.284 Y205.385 E31.0263
G1 X119.097 Y204.901 E31.1126
G1 X118.966 Y204.395 E31.1995
G1 X118.908 Y204.021 E31.2625
G1 X118.876 Y203.535 E31.3435
G1 X118.874 Y197.485 E32.3496
G1 X118.839 Y197.005 E32.4296
G1 X118.731 Y196.520 E32.5122
G1 X118.553 Y196.057 E32.5947
G1 X118.311 Y195.624 E32.6772
G1 X118.008 Y195.230 E32.7599
G1 X117.649 Y194.885 E32.8427
G1 X117.246 Y194.598 E32.9250
G1 X116.805 Y194.370 E33.0075
G1 X116.336 Y194.210 E33.0899
G1 X115.851 Y194.120 E33.1720
G1 X115.485 Y194.100 E33.2329
G1 X108.922 Y194.097 E34.3244
G1 X108.551 Y194.076 E34.3862
G1 X108.016 Y193.995 E34.4761
G1 X107.521 Y193.860 E34.5615
G1 X106.890 Y193.596 E34.6752
G1 X106.446 Y193.338 E34.7606
G1 X106.037 Y193.035 E34.8453
G1 X105.655 Y192.679 E34.9321
G1 X105.315 Y192.280 E35.0193
G1 X105.025 Y191.850 E35.1055
G1 X104.784 Y191.385 E35.1926
G1 X104.597 Y190.901 E35.2789
G1 X104.466 Y190.395 E35.3658
G1 X104.408 Y190.021 E35.4288
G1 X104.374 Y189.458 E35.5226
G1 X104.374 Y109.768 E48.7751
G1 X104.321 Y108.567 E48.9750
G1 X104.345 Y107.707 E49.1181
G1 X104.403 Y107.100 E49.2195
G1 X104.493 Y106.496 E49.3210
G1 X104.621 Y105.880 E49.4257
G1 X104.843 Y105.096 E49.5612
G1 X105.042 Y104.547 E49.6583
G1 X105.367 Y103.816 E49.7913
G1 X105.706 Y103.193 E49.9093
G1 X106.095 Y102.592 E50.0283
G1 X106.517 Y102.034 E50.1447
G1 X106.991 Y101.495 E50.2640
G0 F6000 X185.712 Y101.267
G1 F480 X185.744 Y100.913 E50.3231
G1 X185.841 Y100.399 E50.4101
G1 X186.054 Y99.750 E50.5237
G1 X186.279 Y99.281 E50.6102
G1 X186.562 Y98.832 E50.6985
G1 X186.879 Y98.436 E50.7828
G1 X187.133 Y98.173 E50.8437
G1 X187.660 Y97.743 E50.9568
G1 X188.109 Y97.464 E51.0447
G1 X188.570 Y97.245 E51.1296
G1 X189.050 Y97.080 E51.2140
G1 X189.582 Y96.963 E51.3045
G1 X189.935 Y96.921 E51.3637
G1 X190.327 Y96.902 E51.4289
G1 X195.222 Y96.900 E52.2430
G1 X195.986 Y96.954 E52.3703
G1 X197.350 Y97.150 E52.5995
G1 X198.543 Y97.366 E52.8011
G1 X199.867 Y97.658 E53.0266
G1 X201.389 Y98.084 E53.2894
G1 X202.361 Y98.418 E53.4604
G1 X203.469 Y98.874 E53.6596
G1 X203.915 Y99.085 E53.7417
G1 X204.643 Y99.470 E53.8786
G1 X205.118 Y99.754 E53.9707
G1 X205.835 Y100.240 E54.1147
G1 X206.268 Y100.574 E54.2056
G1 X206.771 Y101.009 E54.3162
G1 X207.317 Y101.552 E54.4443
G1 X207.796 Y102.108 E54.5663
G1 X208.228 Y102.693 E54.6873
G1 X208.552 Y103.201 E54.7875
G1 X208.885 Y103.813 E54.9033
G1 X209.173 Y104.452 E55.0199
G1 X209.434 Y105.173 E55.1474
G1 X209.623 Y105.841 E55.2629
G1 X209.737 Y106.371 E55.3530
G1 X209.862 Y107.205 E55.4933
G1 X209.910 Y107.759 E55.5857
G1 X209.932 Y108.525 E55.7132
G1 X209.880 Y109.756 E55.9181
G1 X209.879 Y189.434 E69.1686
G1 X209.836 Y190.096 E69.2789
G1 X209.740 Y190.604 E69.3649
G1 X209.585 Y191.106 E69.4523
G1 X209.374 Y191.586 E69.5395
G1 X209.204 Y191.890 E69.5974
G1 X208.894 Y192.338 E69.6880
G1 X208.560 Y192.718 E69.7721
G1 X208.059 Y193.159 E69.8831
G1 X207.629 Y193.449 E69.9694
G1 X207.164 Y193.691 E70.0565
G1 X206.686 Y193.875 E70.1417
G1 X206.174 Y194.008 E70.2297
G1 X205.809 Y194.065 E70.2911
G1 X205.315 Y194.098 E70.3735
G1 X198.764 Y194.100 E71.4629
G1 X198.284 Y194.135 E71.5429
G1 X197.799 Y194.243 E71.6256
G1 X197.336 Y194.421 E71.7081
G1 X196.903 Y194.663 E71.7905
G1 X196.509 Y194.966 E71.8732
G1 X196.164 Y195.325 E71.9560
G1 X195.877 Y195.728 E72.0383
G1 X195.649 Y196.169 E72.1208
G1 X195.489 Y196.638 E72.2033
G1 X195.399 Y197.123 E72.2853
G1 X195.379 Y197.489 E72.3462
G1 X195.376 Y203.558 E73.3555
G1 X195.355 Y203.923 E73.4163
G1 X195.274 Y204.458 E73.5063
G1 X195.139 Y204.953 E73.5916
G1 X194.875 Y205.584 E73.7054
G1 X194.617 Y206.028 E73.7908
G1 X194.314 Y206.437 E73.8754
G1 X193.958 Y206.819 E73.9623
G1 X193.559 Y207.159 E74.0494
G1 X193.129 Y207.449 E74.1357
G1 X192.664 Y207.691 E74.2229
G1 X192.190 Y207.873 E74.3073
G1 X191.832 Y207.972 E74.3691
G1 X191.156 Y208.080 E74.4829
G1 X190.719 Y208.100 E74.5557
G1 X186.845 Y208.100 E75.1999
G1 X186.171 Y208.054 E75.3123
G1 X185.680 Y207.963 E75.3953
G1 X185.166 Y207.803 E75.4848
G1 X184.852 Y207.671 E75.5415
G1 X184.248 Y207.336 E75.6563
G1 X183.513 Y206.814 E75.8063
G1 X183.067 Y206.592 E75.8891
G1 X182.595 Y206.438 E75.9717
G1 X182.105 Y206.355 E76.0543
G1 X181.609 Y206.343 E76.1368
G1 X181.117 Y206.405 E76.2193
G1 X180.638 Y206.536 E76.3019
G1 X180.181 Y206.738 E76.3850
G1 X179.711 Y207.043 E76.4782
G1 X179.257 Y207.371 E76.5713
G1 X178.801 Y207.626 E76.6582
G1 X178.180 Y207.877 E76.7696
G1 X177.678 Y208.007 E76.8558
G1 X177.161 Y208.080 E76.9426
G1 X176.719 Y208.100 E77.0162
G1 X172.845 Y208.100 E77.6605
G1 X172.171 Y208.054 E77.7728
G1 X171.680 Y207.963 E77.8559
G1 X171.166 Y207.803 E77.9454
G1 X170.852 Y207.671 E78.0020
G1 X170.248 Y207.336 E78.1169
G1 X169.842 Y207.035 E78.2009
G1 X169.459 Y206.678 E78.2880
G1 X169.211 Y206.396 E78.3505
G1 X168.830 Y205.850 E78.4612
G1 X168.589 Y205.385 E78.5483
G1 X168.403 Y204.903 E78.6342
G1 X168.306 Y204.552 E78.6948
G1 X168.213 Y204.016 E78.7852
G1 X168.179 Y203.458 E78.8782
G1 X168.183 Y184.447 E82.0397
G1 X168.225 Y183.891 E82.1325
G1 X168.316 Y183.403 E82.2150
G1 X168.482 Y182.872 E82.3075
G1 X168.684 Y182.414 E82.3908
G1 X168.854 Y182.110 E82.4487
G1 X169.170 Y181.655 E82.5408
G1 X169.498 Y181.282 E82.6234
G1 X169.887 Y180.928 E82.7109
G1 X170.302 Y180.629 E82.7960
G1 X170.759 Y180.373 E82.8831
G1 X171.245 Y180.169 E82.9707
G1 X171.730 Y180.027 E83.0548
G1 X172.255 Y179.934 E83.1434
G1 X172.829 Y179.900 E83.2391
G1 X188.054 Y179.900 E85.7710
G1 X188.534 Y179.865 E85.8510
G1 X189.019 Y179.757 E85.9337
G1 X189.482 Y179.579 E86.0162
G1 X189.915 Y179.337 E86.0986
G1 X190.309 Y179.034 E86.1813
G1 X190.654 Y178.675 E86.2641
G1 X190.941 Y178.272 E86.3464
G1 X191.169 Y177.831 E86.4289
G1 X191.329 Y177.360 E86.5117
G1 X191.420 Y176.854 E86.5972
G1 X198.003 Y111.025 E97.5992
G1 X198.017 Y110.544 E97.6792
G1 X197.958 Y110.050 E97.7619
G1 X197.827 Y109.570 E97.8447
G1 X197.628 Y109.116 E97.9271
G1 X197.366 Y108.695 E98.0096
G1 X197.044 Y108.317 E98.0922
G1 X196.671 Y107.989 E98.1748
G1 X196.261 Y107.723 E98.2560
G1 X195.469 Y107.362 E98.4008
G1 X194.751 Y107.098 E98.5280
G1 X193.929 Y106.850 E98.6708
G1 X193.146 Y106.651 E98.8051
G1 X191.983 Y106.408 E99.0027
G1 X190.895 Y106.224 E99.1862
G1 X189.646 Y106.053 E99.3959
G1 X189.108 Y105.940 E99.4873
G1 X188.618 Y105.778 E99.5731
G1 X188.131 Y105.552 E99.6624
G1 X187.686 Y105.279 E99.7492
G1 X187.283 Y104.966 E99.8341
G1 X186.905 Y104.596 E99.9220
G1 X186.677 Y104.327 E99.9807
G1 X186.378 Y103.894 E100.0682
G1 X186.071 Y103.294 E100.1803
G1 X185.894 Y102.802 E100.2672
G1 X185.777 Y102.305 E100.3521
G1 X185.715 Y101.776 E100.4407
G1 X185.712 Y101.267 E100.5254
G0 F6000 X207.252 Y102.029
G1 F480 X207.252 Y193.239 E115.6937
G0 F6000 X204.828 Y193.739
G1 F480 X204.828 Y100.000 E131.2825
G0 F6000 X202.404 Y98.826
G1 F480 X202.404 Y193.739 E147.0666
G0 F6000 X199.980 Y193.740
G1 F480 X199.980 Y98.063 E162.9778
G0 F6000 X197.556 Y97.555
G1 F480 X197.556 Y108.361 E164.7748
G0 F6000 X195.132 Y106.854
G1 F480 X195.132 Y97.260 E166.3703
G0 F6000 X192.708 Y97.261
G1 F480 X192.708 Y106.191 E167.8554
G0 F6000 X190.284 Y105.777
G1 F480 X190.284 Y97.266 E169.2707
G0 F6000 X187.860 Y98.044
G1 F480 X187.860 Y104.958 E170.4205
G0 F6000 X197.556 Y119.106
G1 F480 X197.556 Y193.951 E182.8673
G0 F6000 X195.132 Y196.587
G1 F480 X195.132 Y143.346 E191.7213
G0 F6000 X192.708 Y167.585
G1 F480 X192.708 Y207.262 E198.3196
G0 F6000 X190.284 Y207.740
G1 F480 X190.284 Y179.507 E203.0148
G0 F6000 X187.860 Y180.260
G1 F480 X187.860 Y207.740 E207.5848
G0 F6000 X185.436 Y207.510
G1 F480 X185.436 Y180.260 E212.1164
G0 F6000 X183.012 Y180.260
G1 F480 X183.012 Y206.195 E216.4295
G0 F6000 X180.588 Y206.178
G1 F480 X180.588 Y180.260 E220.7396
G0 F6000 X178.164 Y180.260
G1 F480 X178.164 Y207.496 E225.2690
G0 F6000 X175.740 Y207.740
G1 F480 X175.740 Y180.260 E229.8389
G0 F6000 X173.316 Y180.260
G1 F480 X173.316 Y207.740 E234.4089
G0 F6000 X170.892 Y207.280
G1 F480 X170.892 Y180.710 E238.8275
G0 F6000 X144.228 Y181.287
G1 F480 X144.228 Y206.709 E243.0552
G0 F6000 X141.804 Y207.717
G1 F480 X141.804 Y180.288 E247.6167
G0 F6000 X139.380 Y180.260
G1 F480 X139.380 Y207.740 E252.1866
G0 F6000 X136.956 Y207.699
G1 F480 X136.956 Y180.260 E256.7497
G0 F6000 X134.532 Y180.260
G1 F480 X134.532 Y206.603 E261.1306
G0 F6000 X132.108 Y206.005
G1 F480 X132.108 Y180.260 E265.4120
G0 F6000 X129.684 Y180.260
G1 F480 X129.684 Y207.110 E269.8772
G0 F6000 X127.260 Y207.740
G1 F480 X127.260 Y180.260 E274.4471
G0 F6000 X124.836 Y179.990
G1 F480 X124.836 Y207.740 E279.0619
G0 F6000 X122.412 Y207.597
G1 F480 X122.412 Y176.271 E284.2715
G0 F6000 X117.564 Y194.383
G1 F480 X117.564 Y127.699 E295.3611
G0 F6000 X117.564 Y107.563
G1 F480 X117.564 Y97.420 E297.0479
G0 F6000 X119.988 Y97.261
G1 F480 X119.988 Y106.576 E298.5970
G0 F6000 X122.412 Y106.018
G1 F480 X122.412 Y97.260 E300.0534
G0 F6000 X124.836 Y97.362
G1 F480 X124.836 Y105.641 E301.4302
G0 F6000 X127.260 Y104.145
G1 F480 X127.260 Y98.847 E302.3113
G0 F6000 X115.140 Y97.862
G1 F480 X115.140 Y193.739 E318.2557
G0 F6000 X112.716 Y193.738
G1 F480 X112.716 Y98.521 E334.0903
G0 F6000 X110.292 Y99.516
G1 F480 X110.292 Y193.737 E349.7594
G0 F6000 X107.868 Y193.581
G1 F480 X107.868 Y101.154 E365.1300
G0 F6000 X105.444 Y104.530
G1 F480 X105.444 Y191.826 E379.6474
G0 F6000 X119.988 Y205.891
G1 F480 X119.988 Y151.985 E388.6120
;PRINTING_TIME: 301
;REMAINING_TIME: 9645
M106 S255
;LAYER:-2
;Z:1.000
;HEIGHT:0.500
;PRINTING: NON-OBJECT
;PRINTING_ID: -1
G0 F300 Z1.000
G0 F6000 X122.832 Y176.852
;TYPE:RAFT
;WIDTH:0.800
G1 F960 X122.915 Y177.327 E388.6922
G1 X123.070 Y177.799 E388.7748
G1 X123.294 Y178.243 E388.8575
G1 X123.578 Y178.649 E388.9399
G1 X123.919 Y179.010 E389.0225
G1 X124.308 Y179.317 E389.1049
G1 X124.739 Y179.564 E389.1875
G1 X125.201 Y179.747 E389.2702
G1 X125.686 Y179.859 E389.3529
G1 X126.198 Y179.900 E389.4384
G1 X141.408 Y179.900 E391.9678
G1 X142.082 Y179.946 E392.0801
G1 X142.573 Y180.037 E392.1632
G1 X143.087 Y180.197 E392.2527
G1 X143.554 Y180.402 E392.3375
G1 X144.002 Y180.662 E392.4237
G1 X144.411 Y180.965 E392.5083
G1 X144.793 Y181.321 E392.5952
G1 X145.138 Y181.726 E392.6836
G1 X145.342 Y182.019 E392.7430
G1 X145.665 Y182.615 E392.8557
G1 X145.849 Y183.093 E392.9409
G1 X145.982 Y183.605 E393.0289
G1 X146.039 Y183.970 E393.0903
G1 X146.072 Y184.460 E393.1720
G1 X146.074 Y203.446 E396.3294
G1 X146.049 Y203.931 E396.4101
G1 X145.936 Y204.602 E396.5233
G1 X145.777 Y205.113 E396.6123
G1 X145.645 Y205.427 E396.6689
G1 X145.310 Y206.031 E396.7838
G1 X145.009 Y206.437 E396.8679
G1 X144.653 Y206.819 E396.9547
G1 X144.248 Y207.164 E397.0432
G1 X143.955 Y207.368 E397.1025
G1 X143.359 Y207.691 E397.2153
G1 X142.881 Y207.875 E397.3005
G1 X142.369 Y208.008 E397.3884
G1 X142.003 Y208.065 E397.4500
G1 X141.425 Y208.100 E397.5463
