;Sliced by ideaMaker 4.3.1.6452, 2023-01-25 23:11:13 UTC-0800
;Dimension: 305.000 305.000 300.000 0.400 0.400
;Plate Shape: 0
;Origin Center: 0
;Extruder Offset #1: 0.000 0.000
;Filament Diameter #1: 1.750
;Filament Diameter #2: 1.750
;Filament Compensation #1: 90.00
;Filament Compensation #2: 90.00
;Filament Density #1: 1240.00
;Filament Density #2: 1240.00
;Filament Type #1: PLA
;Filament Type #2: PLA
;Filament Name #1: [Raise3D] PLA 1.75mm
;Filament Name #2: [Raise3D] PLA 1.75mm
;Firmware: Raise3D Pro2
;Bounding Box: 131.250 173.750 99.000 206.000 0.000 30.870
;Model Gap: 0.150
M221 T0 S90.00
M140 S60.00
M104 T0 S205.00
M109 T0 S205.00
T0
M190 S60.00
G21
G90
M82
M107
G28 X0 Y0
G28 Z0
G1 Z15.0 F300
G92 E0
G1 F140 E29
G1 X20 Y0 F140 E30
G92 E0
G1 F6000.0
M117 Printing...
M1001
;TOTAL_NUM: 1
;PRINTING_TIME: 0
;REMAINING_TIME: 5259
M106 S0
;LAYER:-2
;Z:0.500
;HEIGHT:0.500
;PRINTING: NON-OBJECT
;PRINTING_ID: -1
G0 F6000 X144.912 Y101.472
G0 F300 Z0.500
;TYPE:RAFT
;WIDTH:0.800
G1 F480 X145.215 Y101.063 E0.0846
G1 X145.572 Y100.680 E0.1717
G1 X145.854 Y100.432 E0.2342
G1 X146.400 Y100.051 E0.3449
G1 X146.865 Y99.809 E0.4321
G1 X147.339 Y99.627 E0.5165
G1 X147.701 Y99.527 E0.5790
G1 X148.226 Y99.434 E0.6676
G1 X148.800 Y99.400 E0.7633
G1 X168.802 Y99.403 E4.0896
G1 X169.173 Y99.424 E4.1514
G1 X169.708 Y99.505 E4.2414
G1 X170.202 Y99.640 E4.3265
G1 X170.681 Y99.831 E4.4123
G1 X171.281 Y100.164 E4.5264
G1 X171.687 Y100.465 E4.6105
G1 X172.069 Y100.821 E4.6973
G1 X172.414 Y101.226 E4.7858
G1 X172.618 Y101.519 E4.8452
G1 X172.941 Y102.115 E4.9579
G1 X173.125 Y102.593 E5.0431
G1 X173.258 Y103.105 E5.1310
G1 X173.315 Y103.470 E5.1925
G1 X173.348 Y103.960 E5.2741
G1 X173.350 Y186.934 E19.0728
G1 X173.304 Y187.608 E19.1851
G1 X173.212 Y188.103 E19.2689
G1 X173.111 Y188.450 E19.3290
G1 X172.846 Y189.084 E19.4432
G1 X172.588 Y189.528 E19.5286
G1 X172.285 Y189.937 E19.6133
G1 X171.929 Y190.319 E19.7001
G1 X171.530 Y190.659 E19.7873
G1 X171.100 Y190.949 E19.8735
G1 X170.635 Y191.191 E19.9607
G1 X170.157 Y191.375 E20.0459
G1 X169.645 Y191.508 E20.1339
G1 X169.280 Y191.565 E20.1953
G1 X168.786 Y191.598 E20.2776
G1 X162.235 Y191.600 E21.3671
G1 X161.755 Y191.635 E21.4471
G1 X161.270 Y191.743 E21.5297
G1 X160.807 Y191.921 E21.6122
G1 X160.374 Y192.163 E21.6947
G1 X159.980 Y192.466 E21.7774
G1 X159.635 Y192.825 E21.8602
G1 X159.348 Y193.228 E21.9425
G1 X159.120 Y193.669 E22.0250
G1 X158.960 Y194.138 E22.1074
G1 X158.870 Y194.623 E22.1895
G1 X158.850 Y194.989 E22.2504
G1 X158.847 Y201.058 E23.2597
G1 X158.826 Y201.423 E23.3205
G1 X158.745 Y201.958 E23.4105
G1 X158.610 Y202.453 E23.4958
G1 X158.346 Y203.084 E23.6096
G1 X158.088 Y203.528 E23.6950
G1 X157.785 Y203.937 E23.7796
G1 X157.429 Y204.319 E23.8664
G1 X157.030 Y204.659 E23.9536
G1 X156.600 Y204.949 E24.0399
G1 X156.135 Y205.191 E24.1270
G1 X155.661 Y205.373 E24.2115
G1 X155.303 Y205.472 E24.2733
G1 X154.627 Y205.580 E24.3871
G1 X154.190 Y205.600 E24.4599
G1 X150.316 Y205.600 E25.1041
G1 X149.642 Y205.554 E25.2164
G1 X149.151 Y205.463 E25.2995
G1 X148.637 Y205.303 E25.3890
G1 X148.323 Y205.171 E25.4457
G1 X147.719 Y204.836 E25.5605
G1 X146.984 Y204.314 E25.7104
G1 X146.538 Y204.092 E25.7933
G1 X146.066 Y203.938 E25.8759
G1 X145.576 Y203.855 E25.9585
G1 X145.080 Y203.843 E26.0410
G1 X144.588 Y203.905 E26.1235
G1 X144.109 Y204.036 E26.2061
G1 X143.649 Y204.240 E26.2898
G1 X142.606 Y204.946 E26.4992
G1 X142.132 Y205.192 E26.5880
G1 X141.792 Y205.329 E26.6490
G1 X141.299 Y205.473 E26.7344
G1 X140.774 Y205.566 E26.8231
G1 X140.201 Y205.600 E26.9185
G1 X136.198 Y205.597 E27.5842
G1 X135.827 Y205.576 E27.6460
G1 X135.292 Y205.495 E27.7360
G1 X134.797 Y205.360 E27.8213
G1 X134.166 Y205.096 E27.9351
G1 X133.722 Y204.838 E28.0205
G1 X133.313 Y204.535 E28.1051
G1 X132.930 Y204.178 E28.1922
G1 X132.682 Y203.896 E28.2546
G1 X132.301 Y203.350 E28.3654
G1 X132.060 Y202.885 E28.4525
G1 X131.874 Y202.403 E28.5384
G1 X131.777 Y202.052 E28.5989
G1 X131.684 Y201.516 E28.6894
G1 X131.650 Y200.958 E28.7824
G1 X131.653 Y181.959 E31.9419
G1 X131.696 Y181.391 E32.0366
G1 X131.787 Y180.901 E32.1195
G1 X131.947 Y180.387 E32.2091
G1 X132.155 Y179.914 E32.2950
G1 X132.325 Y179.610 E32.3529
G1 X132.635 Y179.162 E32.4435
G1 X132.969 Y178.782 E32.5276
G1 X133.358 Y178.428 E32.6151
G1 X133.773 Y178.129 E32.7002
G1 X134.230 Y177.873 E32.7873
G1 X134.716 Y177.669 E32.8749
G1 X135.201 Y177.527 E32.9590
G1 X135.726 Y177.434 E33.0476
G1 X136.300 Y177.400 E33.1433
G1 X150.765 Y177.400 E35.5488
G1 X151.245 Y177.365 E35.6288
G1 X151.730 Y177.257 E35.7115
G1 X152.193 Y177.079 E35.7940
G1 X152.626 Y176.837 E35.8765
G1 X153.020 Y176.534 E35.9591
G1 X153.365 Y176.175 E36.0419
G1 X153.652 Y175.772 E36.1242
G1 X153.880 Y175.331 E36.2068
G1 X154.040 Y174.862 E36.2892
G1 X154.130 Y174.377 E36.3712
G1 X154.150 Y174.011 E36.4322
G1 X154.150 Y114.985 E46.2482
G1 X154.115 Y114.505 E46.3283
G1 X154.007 Y114.020 E46.4109
G1 X153.829 Y113.557 E46.4934
G1 X153.587 Y113.124 E46.5759
G1 X153.284 Y112.730 E46.6585
G1 X152.925 Y112.385 E46.7413
G1 X152.522 Y112.098 E46.8236
G1 X152.081 Y111.870 E46.9062
G1 X151.612 Y111.710 E46.9886
G1 X151.127 Y111.620 E47.0706
G1 X150.761 Y111.600 E47.1316
G1 X148.804 Y111.600 E47.4570
G1 X148.326 Y111.576 E47.5366
G1 X147.792 Y111.495 E47.6264
G1 X147.297 Y111.360 E47.7118
G1 X146.666 Y111.096 E47.8255
G1 X146.222 Y110.838 E47.9109
G1 X145.813 Y110.535 E47.9955
G1 X145.430 Y110.178 E48.0826
G1 X145.182 Y109.896 E48.1451
G1 X144.801 Y109.350 E48.2558
G1 X144.560 Y108.885 E48.3429
G1 X144.374 Y108.403 E48.4288
G1 X144.277 Y108.052 E48.4894
G1 X144.184 Y107.524 E48.5785
G1 X144.150 Y106.951 E48.6740
G1 X144.154 Y103.947 E49.1736
G1 X144.196 Y103.384 E49.2674
G1 X144.252 Y103.054 E49.3231
G1 X144.390 Y102.547 E49.4105
G1 X144.654 Y101.916 E49.5242
G1 X144.912 Y101.472 E49.6096
G0 F6000 X170.892 Y100.360
G1 F480 X170.892 Y190.651 E64.6251
G0 F6000 X168.468 Y191.239
G1 F480 X168.468 Y99.763 E79.8376
G0 F6000 X166.044 Y99.763
G1 F480 X166.044 Y191.239 E95.0501
G0 F6000 X163.620 Y191.240
G1 F480 X163.620 Y99.763 E110.2628
G0 F6000 X161.196 Y99.762
G1 F480 X161.196 Y191.391 E125.5008
G0 F6000 X158.772 Y193.574
G1 F480 X158.772 Y99.762 E141.1018
G0 F6000 X156.348 Y99.762
G1 F480 X156.348 Y204.674 E158.5487
G0 F6000 X153.924 Y205.240
G1 F480 X153.924 Y176.010 E163.4097
G0 F6000 X151.500 Y177.677
G1 F480 X151.500 Y205.240 E167.9934
G0 F6000 X149.076 Y205.062
G1 F480 X149.076 Y177.760 E172.5338
G0 F6000 X146.652 Y177.760
G1 F480 X146.652 Y203.750 E176.8559
G0 F6000 X144.228 Y203.631
G1 F480 X144.228 Y177.760 E181.1583
G0 F6000 X141.804 Y177.760
G1 F480 X141.804 Y204.937 E185.6778
G0 F6000 X139.380 Y205.239
G1 F480 X139.380 Y177.760 E190.2476
G0 F6000 X136.956 Y177.760
G1 F480 X136.956 Y205.237 E194.8171
G0 F6000 X134.532 Y204.859
G1 F480 X134.532 Y178.136 E199.2611
G0 F6000 X132.108 Y181.141
G1 F480 X132.108 Y201.856 E202.7060
G0 F6000 X153.924 Y112.987
G1 F480 X153.924 Y99.761 E204.9055
G0 F6000 X151.500 Y99.761
G1 F480 X151.500 Y111.322 E206.8281
G0 F6000 X149.076 Y111.240
G1 F480 X149.076 Y99.761 E208.7371
G0 F6000 X146.652 Y100.326
G1 F480 X146.652 Y110.671 E210.4575
;PRINTING_TIME: 164
;REMAINING_TIME: 5095
M106 S255
;LAYER:-2
;Z:1.000
;HEIGHT:0.500
;PRINTING: NON-OBJECT
;PRINTING_ID: -1
G0 F300 Z1.000
G0 F6000 X146.222 Y110.838
;TYPE:RAFT
;WIDTH:0.800
G1 F960 X145.813 Y110.535 E210.5421
G1 X145.430 Y110.178 E210.6292
G1 X145.182 Y109.896 E210.6916
G1 X144.801 Y109.350 E210.8024
G1 X144.560 Y108.885 E210.8895
G1 X144.374 Y108.403 E210.9754
G1 X144.277 Y108.052 E211.0359
G1 X144.184 Y107.524 E211.1251
G1 X144.150 Y106.951 E211.2206
G1 X144.154 Y103.947 E211.7201
G1 X144.196 Y103.384 E211.8140
G1 X144.252 Y103.054 E211.8697
G1 X144.390 Y102.547 E211.9571
G1 X144.654 Y101.916 E212.0708
G1 X144.912 Y101.472 E212.1562
G1 X145.215 Y101.063 E212.2409
G1 X145.572 Y100.680 E212.3279
G1 X145.854 Y100.432 E212.3904
G1 X146.400 Y100.051 E212.5011
G1 X146.865 Y99.809 E212.5883
G1 X147.339 Y99.627 E212.6727
G1 X147.701 Y99.527 E212.7352
G1 X148.226 Y99.434 E212.8238
G1 X148.800 Y99.400 E212.9195
G1 X168.802 Y99.403 E216.2458
G1 X169.173 Y99.424 E216.3076
G1 X169.708 Y99.505 E216.3976
G1 X170.202 Y99.640 E216.4828
G1 X170.681 Y99.831 E216.5685
G1 X171.281 Y100.164 E216.6826
G1 X171.687 Y100.465 E216.7667
G1 X172.069 Y100.821 E216.8535
G1 X172.414 Y101.226 E216.9420
G1 X172.618 Y101.519 E217.0014
G1 X172.941 Y102.115 E217.1141
G1 X173.125 Y102.593 E217.1993
G1 X173.258 Y103.105 E217.2873
G1 X173.315 Y103.470 E217.3487
G1 X173.348 Y103.960 E217.4304
G1 X173.350 Y186.934 E231.2290
G1 X173.304 Y187.608 E231.3413
G1 X173.212 Y188.103 E231.4251
G1 X173.111 Y188.450 E231.4852
G1 X172.846 Y189.084 E231.5994
G1 X172.588 Y189.528 E231.6848
G1 X172.285 Y189.937 E231.7695
G1 X171.929 Y190.319 E231.8563
G1 X171.530 Y190.659 E231.9435
G1 X171.100 Y190.949 E232.0298
G1 X170.635 Y191.191 E232.1169
G1 X170.157 Y191.375 E232.2021
G1 X169.645 Y191.508 E232.2901
G1 X169.280 Y191.565 E232.3515
G1 X168.786 Y191.598 E232.4339
G1 X162.235 Y191.600 E233.5233
G1 X161.755 Y191.635 E233.6033
G1 X161.270 Y191.743 E233.6860
G1 X160.807 Y191.921 E233.7684
G1 X160.374 Y192.163 E233.8509
G1 X159.980 Y192.466 E233.9336
G1 X159.635 Y192.825 E234.0164
G1 X159.348 Y193.228 E234.0987
G1 X159.120 Y193.669 E234.1812
G1 X158.960 Y194.138 E234.2636
G1 X158.870 Y194.623 E234.3457
G1 X158.850 Y194.989 E234.4066
G1 X158.847 Y201.058 E235.4159
G1 X158.826 Y201.423 E235.4767
G1 X158.745 Y201.958 E235.5667
G1 X158.610 Y202.453 E235.6520
G1 X158.346 Y203.084 E235.7658
G1 X158.088 Y203.528 E235.8512
G1 X157.785 Y203.937 E235.9358
G1 X157.429 Y204.319 E236.0227
G1 X157.030 Y204.659 E236.1098
G1 X156.600 Y204.949 E236.1961
G1 X156.135 Y205.191 E236.2833
G1 X155.661 Y205.373 E236.3677
G1 X155.303 Y205.472 E236.4295
G1 X154.627 Y205.580 E236.5433
G1 X154.190 Y205.600 E236.6161
G1 X150.316 Y205.600 E237.2603
G1 X149.642 Y205.554 E237.3727
G1 X149.151 Y205.463 E237.4557
G1 X148.637 Y205.303 E237.5452
G1 X148.323 Y205.171 E237.6019
G1 X147.719 Y204.836 E237.7167
G1 X146.984 Y204.314 E237.8667
G1 X146.538 Y204.092 E237.9495
G1 X146.066 Y203.938 E238.0321
G1 X145.576 Y203.855 E238.1147
G1 X145.080 Y203.843 E238.1972
G1 X144.588 Y203.905 E238.2797
G1 X144.109 Y204.036 E238.3623
G1 X143.649 Y204.240 E238.4460
G1 X142.606 Y204.946 E238.6554
G1 X142.132 Y205.192 E238.7442
G1 X141.792 Y205.329 E238.8052
G1 X141.299 Y205.473 E238.8906
G1 X140.774 Y205.566 E238.9793
G1 X140.201 Y205.600 E239.0747
G1 X136.198 Y205.597 E239.7404
G1 X135.827 Y205.576 E239.8022
G1 X135.292 Y205.495 E239.8922
G1 X134.797 Y205.360 E239.9775
G1 X134.166 Y205.096 E240.0913
G1 X133.722 Y204.838 E240.1767
G1 X133.313 Y204.535 E240.2613
G1 X132.930 Y204.178 E240.3484
G1 X132.682 Y203.896 E240.4108
G1 X132.301 Y203.350 E240.5216
G1 X132.060 Y202.885 E240.6087
G1 X131.874 Y202.403 E240.6946
G1 X131.777 Y202.052 E240.7551
G1 X131.684 Y201.516 E240.8456
G1 X131.650 Y200.958 E240.9386
G1 X131.653 Y181.959 E244.0981
G1 X131.696 Y181.391 E244.1929
G1 X131.787 Y180.901 E244.2757
G1 X131.947 Y180.387 E244.3653
G1 X132.155 Y179.914 E244.4512
G1 X132.325 Y179.610 E244.5091
G1 X132.635 Y179.162 E244.5997
G1 X132.969 Y178.782 E244.6839
G1 X133.358 Y178.428 E244.7713
G1 X133.773 Y178.129 E244.8564
G1 X134.230 Y177.873 E244.9435
G1 X134.716 Y177.669 E245.0311
G1 X135.201 Y177.527 E245.1152
G1 X135.726 Y177.434 E245.2039
G1 X136.300 Y177.400 E245.2995
G1 X150.765 Y177.400 E247.7050
G1 X151.245 Y177.365 E247.7851
G1 X151.730 Y177.257 E247.8677
G1 X152.193 Y177.079 E247.9502
G1 X152.626 Y176.837 E248.0327
G1 X153.020 Y176.534 E248.1153
G1 X153.365 Y176.175 E248.1981
G1 X153.652 Y175.772 E248.2804
G1 X153.880 Y175.331 E248.3630
G1 X154.040 Y174.862 E248.4454
G1 X154.130 Y174.377 E248.5274
G1 X154.150 Y174.011 E248.5884
G1 X154.150 Y114.985 E258.4044
G1 X154.115 Y114.505 E258.4845
G1 X154.007 Y114.020 E258.5671
G1 X153.829 Y113.557 E258.6496
G1 X153.587 Y113.124 E258.7321
G1 X153.284 Y112.730 E258.8147
G1 X152.925 Y112.385 E258.8975
G1 X152.522 Y112.098 E258.9798
G1 X152.081 Y111.870 E259.0624
G1 X151.612 Y111.710 E259.1448
G1 X151.127 Y111.620 E259.2268
G1 X150.761 Y111.600 E259.2878
G1 X148.804 Y111.600 E259.6132
G1 X148.326 Y111.576 E259.6928
G1 X147.792 Y111.495 E259.7826
G1 X147.297 Y111.360 E259.8680
G1 X146.666 Y111.096 E259.9817
G1 X146.222 Y110.838 E260.0671
G0 F6000 X170.892 Y100.360
G1 F960 X170.892 Y190.651 E275.0826
G0 F6000 X168.468 Y191.239
G1 F960 X168.468 Y99.763 E290.2951
G0 F6000 X166.044 Y99.763
G1 F960 X166.044 Y191.239 E305.5076
G0 F6000 X163.620 Y191.240
G1 F960 X163.620 Y99.763 E320.7203
G0 F6000 X161.196 Y99.762
G1 F960 X161.196 Y191.391 E335.9583
G0 F6000 X158.772 Y193.574
G1 F960 X158.772 Y99.762 E351.5593
G0 F6000 X156.348 Y99.762
G1 F960 X156.348 Y204.674 E369.0062
G0 F6000 X153.924 Y205.240
G1 F960 X153.924 Y176.010 E373.8672
G0 F6000 X151.500 Y177.677
G1 F960 X151.500 Y205.240 E378.4509
G0 F6000 X149.076 Y205.062
G1 F960 X149.076 Y177.760 E382.9912
G0 F6000 X146.652 Y177.760
G1 F960 X146.652 Y203.750 E387.3134
G0 F6000 X144.228 Y203.631
G1 F960 X144.228 Y177.760 E391.6158
G0 F6000 X141.804 Y177.760
G1 F960 X141.804 Y204.937 E396.1353
G0 F6000 X139.380 Y205.239
G1 F960 X139.380 Y177.760 E400.7051
G0 F6000 X136.956 Y177.760
G1 F960 X136.956 Y205.237 E405.2745
G0 F6000 X134.532 Y204.859
G1 F960 X134.532 Y178.136 E409.7186
G0 F6000 X132.108 Y181.141
G1 F960 X132.108 Y201.856 E413.1635
G0 F6000 X153.924 Y112.987
G1 F960 X153.924 Y99.761 E415.3630
G0 F6000 X151.500 Y99.761
G1 F960 X151.500 Y111.322 E417.2856
G0 F6000 X149.076 Y111.240
G1 F960 X149.076 Y99.761 E419.1946
G0 F6000 X146.652 Y100.326
G1 F960 X146.652 Y110.671 E420.9150
;PRINTING_TIME: 247
;REMAINING_TIME: 5012
;LAYER:-1
;Z:1.380
;HEIGHT:0.380
;PRINTING: NON-OBJECT
;PRINTING_ID: -1
G0 F300 Z1.380
G0 F6000 X146.696 Y100.200
;TYPE:RAFT
;WIDTH:0.600
G1 F1800 X170.791 Y100.200 E423.1990
G0 F6000 X172.208 Y101.400
G1 F1800 X145.301 Y101.400 E425.7495
G0 F6000 X144.662 Y102.600
G1 F1800 X172.840 Y102.600 E428.4205
G0 F6000 X173.068 Y103.800
G1 F1800 X144.436 Y103.800 E431.1346
G0 F6000 X144.423 Y105.000
G1 F1800 X173.079 Y105.000 E433.8509
G0 F6000 X173.079 Y106.200
G1 F1800 X144.422 Y106.200 E436.5674
G0 F6000 X144.446 Y107.400
G1 F1800 X173.079 Y107.400 E439.2815
G0 F6000 X173.079 Y108.600
G1 F1800 X144.739 Y108.600 E441.9679
G0 F6000 X145.456 Y109.800
G1 F1800 X173.079 Y109.800 E444.5864
G0 F6000 X173.079 Y111.000
G1 F1800 X147.139 Y111.000 E447.0452
G0 F6000 X153.123 Y112.200
G1 F1800 X173.079 Y112.200 E448.9369
G0 F6000 X173.079 Y113.400
G1 F1800 X154.051 Y113.400 E450.7406
G0 F6000 X154.392 Y114.600
G1 F1800 X173.079 Y114.600 E452.5120
G0 F6000 X173.079 Y115.800
G1 F1800 X154.420 Y115.800 E454.2807
G0 F6000 X154.420 Y117.000
G1 F1800 X173.079 Y117.000 E456.0494
G0 F6000 X173.079 Y118.200
G1 F1800 X154.420 Y118.200 E457.8181
G0 F6000 X154.420 Y119.400
G1 F1800 X173.079 Y119.400 E459.5868
G0 F6000 X173.079 Y120.600
G1 F1800 X154.420 Y120.600 E461.3555
G0 F6000 X154.420 Y121.800
G1 F1800 X173.079 Y121.800 E463.1242
G0 F6000 X173.079 Y123.000
G1 F1800 X154.420 Y123.000 E464.8929
G0 F6000 X154.420 Y124.200
G1 F1800 X173.079 Y124.200 E466.6617
G0 F6000 X173.079 Y125.400
G1 F1800 X154.420 Y125.400 E468.4304
G0 F6000 X154.420 Y126.600
G1 F1800 X173.079 Y126.600 E470.1991
G0 F6000 X173.079 Y127.800
G1 F1800 X154.420 Y127.800 E471.9678
G0 F6000 X154.420 Y129.000
G1 F1800 X173.079 Y129.000 E473.7365
G0 F6000 X173.079 Y130.200
G1 F1800 X154.420 Y130.200 E475.5052
G0 F6000 X154.420 Y131.400
